X:1
T:Title
L:1/8
M:4/4
K:Ab
V:1 treble nm="Grand Piano"
V:1
 z4 z[Q:1/4=100] AAA | A2 AG B2 AG | F2 A2- AAAA | A2 AG B2 AG | F2 A2- AAAB | cABG B2 AG | %6
 F2 A2- AAAA | A2 AG B2 AG | F2 B2- BB B2 | B2 B2 BAGA | B4- BB B2 | B2 B2 cdcB | c4 c2 c2 | %13
 c2 c2 c2 BA | B2 c2- cccc | c2 c2 c2 BA | B2 c2- cc c2 | c2 ec cBBA | B2 c2- cccc | c2 c2 c2 BA | %20
 B2 A2- AA A2 | A2 A2 AGFG | AB A2- AAAA | A2 B2 cdcB | c4- cBBB | B2 G2 ABAG | F2 B2- BBBB | %27
 B2 G2 ABAG | F6 z2 |] %29

